icons/ambulance_fill.svg

<svg width="48" height="48" viewBox="0 0 48 48" fill="none" xmlns="http://www.w3.org/2000/svg">
<path d="M32 12.5C32 13.0523 32.4477 13.5 33 13.5C33.5523 13.5 34 13.0523 34 12.5V11C34 10.4477 33.5523 10 33 10C32.4477 10 32 10.4477 32 11V12.5Z" fill="black"/>
<path fill-rule="evenodd" clip-rule="evenodd" d="M4 16C4 14.8954 4.89543 14 6 14H28C28.7403 14 29.3866 14.4022 29.7324 15H30V19H31V18H32V17C32 16.4477 32.4477 16 33 16C33.5523 16 34 16.4477 34 17V18H35V19H35.718C36.4722 19 37.1987 19.2841 37.7529 19.7956L43.0348 24.6713C43.6501 25.2392 44 26.0384 44 26.8757V35H38.874C38.4299 36.7252 36.8638 38 35 38C33.1362 38 31.5701 36.7252 31.126 35H15.874C15.4299 36.7252 13.8638 38 12 38C10.1362 38 8.57006 36.7252 8.12602 35H4V16ZM42 28L30 28V33H31.126C31.5701 31.2748 33.1362 30 35 30C36.8638 30 38.4299 31.2748 38.874 33H42V28ZM30 26L41.5257 26L36.3963 21.2652C36.2116 21.0947 35.9694 21 35.718 21H30V26ZM12 36C13.1046 36 14 35.1046 14 34C14 32.8954 13.1046 32 12 32C10.8954 32 10 32.8954 10 34C10 35.1046 10.8954 36 12 36ZM37 34C37 35.1046 36.1046 36 35 36C33.8954 36 33 35.1046 33 34C33 32.8954 33.8954 32 35 32C36.1046 32 37 32.8954 37 34ZM13 22H16V19H18V22H21V24H18V27H16V24H13V22Z" fill="black"/>
<path d="M36.5 17C36.5 16.4477 36.9477 16 37.5 16H39C39.5523 16 40 16.4477 40 17C40 17.5523 39.5523 18 39 18H37.5C36.9477 18 36.5 17.5523 36.5 17Z" fill="black"/>
<path d="M35.8285 12.759C35.4193 13.1298 35.3881 13.7622 35.759 14.1715C36.1298 14.5807 36.7622 14.6119 37.1715 14.241L38.0857 13.4126C38.4949 13.0417 38.5261 12.4093 38.1552 12.0001C37.7844 11.5908 37.152 11.5597 36.7427 11.9306L35.8285 12.759Z" fill="black"/>
</svg>

<svg
  xmlns="http://www.w3.org/2000/svg"
  width="24"
  height="24"
  viewBox="0 0 24 24"
  fill="none"
  stroke="currentColor"
  stroke-width="2"
  stroke-linecap="round"
  stroke-linejoin="round"
>
  <path d="M32 12.5a1 1 0 1 0 2 0V11a1 1 0 1 0-2 0z" />
  <path
    fill-rule="evenodd"
    d="M4 16a2 2 0 0 1 2-2h22a2 2 0 0 1 1.732 1H30v4h1v-1h1v-1a1 1 0 1 1 2 0v1h1v1h.718a3 3 0 0 1 2.035.796l5.282 4.875A3 3 0 0 1 44 26.876V35h-5.126a4.002 4.002 0 0 1-7.748 0H15.874a4.002 4.002 0 0 1-7.748 0H4zm38 12H30v5h1.126a4.002 4.002 0 0 1 7.748 0H42zm-12-2h11.526l-5.13-4.735a1 1 0 0 0-.678-.265H30zM12 36a2 2 0 1 0 0-4 2 2 0 0 0 0 4m25-2a2 2 0 1 1-4 0 2 2 0 0 1 4 0M13 22h3v-3h2v3h3v2h-3v3h-2v-3h-3z"
    clip-rule="evenodd"
  />
  <path d="M36.5 17a1 1 0 0 1 1-1H39a1 1 0 1 1 0 2h-1.5a1 1 0 0 1-1-1" />
  <path d="M35.829 12.759a1 1 0 1 0 1.343 1.482l.914-.828a1 1 0 0 0-1.343-1.482z" />
</svg>
